public/library/velodrome-icon-dark.svg

<svg width="401" height="401" viewBox="0 0 401 401" fill="none" xmlns="http://www.w3.org/2000/svg">
<path d="M224.015 306.224C156.514 307.083 103.984 297.742 65.0009 285.105C57.3574 282.509 40.676 274.912 35.0985 265.299C32.012 259.979 31.9754 246.325 33.0478 232.272C33.3503 233.249 33.7027 234.099 34.1099 234.802C39.6766 244.418 56.4603 251.99 64.1563 254.574C103.411 267.146 156.357 276.388 224.473 275.383C300.213 274.264 346.704 265.338 374.009 254.76C373.993 255.004 373.977 255.248 373.961 255.492C372.828 272.967 371.727 289.926 326.954 297.89C301.045 302.498 267.376 305.672 224.015 306.224Z" fill="#FF1100"/>
<path d="M224.015 330.859C156.514 331.718 103.984 322.377 65.0009 309.74C57.3574 307.143 40.676 299.547 35.0985 289.934C32.012 284.614 31.9754 270.96 33.0478 256.907C33.3503 257.884 33.7027 258.733 34.1099 259.437C39.6766 269.052 56.4603 276.624 64.1563 279.208C103.411 291.78 156.357 301.023 224.473 300.017C300.213 298.899 346.704 289.973 374.009 279.395C373.993 279.639 373.977 279.883 373.961 280.126C372.828 297.601 371.727 314.561 326.954 322.524C301.045 327.132 267.376 330.307 224.015 330.859Z" fill="#FDBF41"/>
<path d="M390.082 305.733C390.709 321.539 355.175 353.62 208.014 355.494C140.513 356.353 87.9832 347.011 48.9997 334.375C41.3562 331.778 24.6748 324.182 19.0973 314.569C16.0107 309.249 15.9742 295.595 17.0466 281.542C17.349 282.519 17.7015 283.368 18.1087 284.071C23.6754 293.687 40.4591 301.259 48.1551 303.843C87.4102 316.415 140.355 325.658 208.471 324.652C325.756 322.92 372.904 302.468 387.281 286.147L390.082 305.733Z" fill="#F1ECE2"/>
<path d="M213.204 17.2339C240.356 26.9468 280.55 80.6452 224.113 217.736C198.226 280.617 161.046 323.034 123.747 350.798C116.232 356.165 96.5467 366.62 77.9282 365.51C70.6401 365.076 56.8736 360.516 41.1306 354.296C44.7808 355.258 47.8882 355.856 50.2913 356.001C68.9098 357.122 88.5951 346.557 96.1104 341.134C133.409 313.077 170.589 270.212 196.476 206.667C243.072 92.2879 223.799 35.3529 200.379 13.4503L213.204 17.2339Z" fill="#FF1100"/>
<path d="M236.478 18.794C263.63 28.7867 303.825 84.0319 247.387 225.071C221.5 289.764 184.32 333.403 147.022 361.967C139.506 367.488 119.821 378.244 101.202 377.102C93.9141 376.655 80.1471 371.965 64.4034 365.565C68.0543 366.555 71.1622 367.17 73.5655 367.319C92.1841 368.473 111.869 357.603 119.385 352.024C156.683 323.159 193.863 279.059 219.75 213.683C266.346 96.0103 247.073 37.4352 223.654 14.9016L236.478 18.794Z" fill="#FDBF41"/>
<path d="M256.843 31.8359C283.995 41.8285 324.19 97.0737 267.752 238.113C241.865 302.806 204.685 346.445 167.387 375.009C159.871 380.53 140.186 391.286 121.567 390.144C114.279 389.697 100.512 385.006 84.7684 378.607C88.4193 379.596 91.5272 380.212 93.9305 380.361C112.549 381.515 132.234 370.645 139.75 365.066C177.048 336.2 214.228 292.101 240.115 226.725C286.711 109.052 267.438 50.4771 244.019 27.9434L256.843 31.8359Z" fill="#F1ECE2"/>
<path d="M286.421 244.446C342.859 98.1835 302.664 40.8928 275.512 30.53L262.688 26.4937C262.934 26.7388 263.179 26.9881 263.424 27.2414C243.73 24.0172 216.748 37.3898 191.297 62.9909C187.66 66.6138 203.598 60.6475 208.752 55.513C221.116 45.369 239.613 40.2918 256.997 47.5841C296.224 64.0382 297.037 150.696 258.814 241.14C220.591 331.584 162.17 390.115 122.943 373.661C117.699 371.461 112.215 367.346 107.659 364.18C97.1316 354.781 92.3858 342.228 92.3858 309.837L92.3858 349.8C89.6242 345.693 87.2943 341.089 85.4793 335.922C85.1125 327.227 79.2945 312.736 77.5025 327.952C78.8552 361.15 93.2528 380.446 112.689 391.966L112.599 391.96C111.871 391.913 111.309 391.897 110.824 391.883C108.967 391.83 108.216 391.808 103.443 390.226C118.684 396.91 127.027 400.02 136.171 400.37C157.589 401.191 182.475 388.706 189.991 382.981C227.289 353.359 260.534 311.534 286.421 244.446Z" fill="#007FFF"/>
<path d="M208.806 170.329C276.306 169.47 328.836 178.812 367.82 191.448C375.463 194.045 392.145 201.641 397.722 211.254C400.809 216.574 400.845 230.229 399.773 244.281C399.471 243.304 399.118 242.455 398.711 241.752C393.144 232.136 376.36 224.564 368.664 221.98C329.409 209.408 276.464 200.165 208.348 201.171C132.607 202.289 86.1163 211.215 58.8117 221.794C58.8277 221.55 58.8435 221.306 58.8593 221.062C59.9931 203.587 61.0935 186.627 105.867 178.664C131.775 174.056 165.445 170.881 208.806 170.329Z" fill="#FF1100"/>
<path d="M208.806 198.114C276.306 197.255 328.836 206.597 367.82 219.233C375.463 221.83 392.145 229.426 397.722 239.039C400.809 244.359 400.845 258.013 399.773 272.066C399.471 271.089 399.118 270.24 398.711 269.537C393.144 259.921 376.36 252.349 368.664 249.765C329.409 237.193 276.464 227.95 208.348 228.956C132.607 230.074 86.1163 239 58.8117 249.579C58.8277 249.335 58.8435 249.091 58.8593 248.847C59.9931 231.372 61.0935 214.412 105.867 206.449C131.775 201.841 165.445 198.666 208.806 198.114Z" fill="#FDBF41"/>
<path opacity="0.48" d="M389.741 314.927C390.403 314.397 390.403 314.342 389.741 313.812C388.205 312.548 386.562 311.447 384.88 310.4C379.265 306.907 373.265 304.243 367.12 301.932C365.716 301.402 364.352 300.763 362.855 300.491C362.445 300.015 361.835 299.974 361.306 299.798C355.571 297.84 349.73 296.236 343.876 294.7C343.386 294.66 342.909 294.551 342.485 294.306C339.744 293.694 337.002 293.069 334.274 292.458C329.201 291.329 324.102 290.351 318.99 289.467C315.202 288.815 311.401 288.203 307.6 287.618C304.633 287.17 301.666 286.708 298.673 286.49C298.183 286.409 297.693 286.313 297.19 286.245C286.713 284.927 276.224 283.935 265.695 283.187C258.821 282.711 251.947 282.331 245.06 282.059C236.067 281.705 227.061 281.542 218.055 281.542C206.89 281.542 195.738 281.828 184.599 282.385C171.726 283.024 158.879 284.03 146.071 285.498C143.979 285.743 141.86 285.878 139.794 286.341C139.37 286.218 138.959 286.341 138.535 286.381C129.41 287.537 120.324 288.964 111.292 290.718C105.955 291.751 100.644 292.892 95.3723 294.184L95.2664 294.361C95.2664 294.361 93.9022 314.505 96.9219 334.175C102.127 335.439 107.358 336.567 112.603 337.573C117.292 338.47 121.993 339.326 126.721 340.02C133.344 340.998 139.979 341.991 146.641 342.697C153.117 343.391 159.581 344.111 166.07 344.6C169.911 344.886 173.739 345.226 177.58 345.457C183.262 345.797 188.957 346.082 194.639 346.286C199.83 346.476 205.022 346.626 210.214 346.694C218.518 346.802 226.836 346.762 235.14 346.585C243.139 346.408 251.139 346.096 259.125 345.633C268.648 345.09 278.157 344.315 287.654 343.309C302.13 341.773 316.526 339.707 330.791 336.784C343.253 334.229 355.571 331.102 367.517 326.59C372.722 324.632 377.821 322.389 382.669 319.616C385.132 318.216 387.516 316.694 389.741 314.913V314.927Z" fill="url(#paint0_linear_711_1479)"/>
<path d="M26.7389 273.96C26.1111 258.153 61.6458 226.072 208.807 224.199C276.307 223.339 328.837 232.681 367.821 245.318C375.464 247.914 392.146 255.51 397.723 265.123C400.81 270.443 400.846 284.098 399.774 298.15C399.472 297.173 399.119 296.324 398.712 295.621C393.145 286.005 376.361 278.433 368.665 275.849C329.41 263.277 276.465 254.034 208.349 255.04C91.065 256.772 43.9169 277.225 29.5394 293.545L26.7389 273.96Z" fill="#F1ECE2"/>
<path d="M26.7389 302.943C26.1111 287.136 61.6458 255.055 208.807 253.182C276.307 252.322 328.837 261.664 367.821 274.301C375.464 276.897 392.146 284.493 397.723 294.107C400.504 298.899 400.809 310.457 400.058 322.976C394.094 313.683 376.206 307.362 368.669 304.831C329.414 292.259 276.469 283.017 208.353 284.022C91.0601 285.754 43.9137 306.21 29.5398 322.531L26.7389 302.943Z" fill="#007FFF"/>
<path d="M39.8323 361.614C12.6802 351.543 -27.5145 295.864 28.923 153.718C54.8101 88.5173 91.9899 44.5359 129.289 15.7478C136.804 10.1835 156.489 -0.657315 175.108 0.493667C185.634 1.14437 209.673 10.7158 233.663 21.5131C231.195 21.7694 228.812 22.0318 226.538 22.2823C218.29 23.1909 211.464 23.9428 207.108 23.6784C188.49 22.5482 168.805 33.1929 161.289 38.6565C123.991 66.9236 86.8108 110.109 60.9236 174.13C14.0388 290.079 33.8425 347.435 57.4564 369.199L39.8323 361.614Z" fill="#FF1100"/>
<path d="M63.1061 372.781C35.954 362.601 -4.24077 306.318 52.1967 162.628C78.0839 96.7194 115.264 52.2604 152.562 23.1598C160.078 17.5351 179.763 6.57654 198.381 7.74002C206.509 8.2479 222.693 14.1321 240.69 21.8117C233.97 19.5581 228.379 18.1248 224.564 17.8846C205.945 16.7128 186.26 27.7498 178.745 33.4148C141.446 62.7239 104.266 107.501 78.3791 173.882C21.9416 318.6 63.4411 373.453 90.5932 383.707L113.866 391.677L63.1061 372.781Z" fill="#FDBF41"/>
<path d="M84.9223 382.499C57.7703 372.21 17.5755 315.322 74.013 170.089C99.9002 103.472 137.08 58.5357 174.379 29.1225C181.894 23.4373 201.579 12.3611 220.198 13.5371C228.61 14.0684 245.653 20.4211 264.404 28.5822C258.064 26.5585 252.787 25.279 249.139 25.0437C230.521 23.8428 210.985 33.7936 203.47 39.5996C166.171 69.6379 128.992 115.529 103.105 183.562C54.9148 310.206 88.3122 372.296 112.409 393.126L84.9223 382.499Z" fill="#F1ECE2"/>
<path d="M97.2869 178.109C40.8493 324.371 81.0441 381.661 108.196 392.024L121.019 396.06C120.774 395.815 120.529 395.566 120.284 395.313C139.978 398.537 166.96 385.164 192.411 359.563C196.047 355.94 180.11 361.907 174.956 367.041C162.592 377.185 144.095 382.262 126.71 374.97C87.4839 358.516 86.6704 271.858 124.893 181.414C163.116 90.9703 221.538 32.439 260.765 48.8931C266.008 51.0927 271.493 55.2078 276.049 58.3739C286.576 67.7734 291.322 80.3258 291.322 112.717V72.7541C294.084 76.861 296.414 81.4649 298.229 86.6319C298.595 95.3267 304.413 109.818 306.205 94.6021C304.853 61.4044 290.455 42.1079 271.019 30.5885L271.109 30.5942C271.837 30.641 272.399 30.6572 272.884 30.6711C274.74 30.7246 275.492 30.7462 280.264 32.3279C265.024 25.6442 256.681 22.5345 247.536 22.184C226.118 21.363 201.232 33.8478 193.717 39.5733C156.418 69.1948 123.174 111.02 97.2869 178.109Z" fill="#007FFF"/>
<path d="M220.561 345.816C334.388 342.554 381.873 322.568 397.492 306.29L398.979 319.929L399.691 319.22C400.158 320.77 400.325 324.272 399.615 327.501C397.627 341.399 356.266 377.428 196.051 377.428C190.201 377.428 184.628 377.361 179.323 377.23C191.26 366.599 201.44 356.152 210.168 346.035C213.593 345.989 217.057 345.916 220.561 345.816Z" fill="#007FFF"/>
<defs>
<linearGradient id="paint0_linear_711_1479" x1="253.508" y1="274.297" x2="256.256" y2="335.168" gradientUnits="userSpaceOnUse">
<stop offset="0.16" stop-color="#191919"/>
<stop offset="0.97" stop-color="#191919" stop-opacity="0"/>
</linearGradient>
</defs>
</svg>

<svg xmlns="http://www.w3.org/2000/svg" width="401" height="401" fill="none" viewBox="0 0 401 401"><path fill="#f10" d="M224.015 306.224c-67.501.859-120.031-8.482-159.014-21.119-7.644-2.596-24.325-10.193-29.903-19.806-3.086-5.32-3.123-18.974-2.05-33.027.302.977.655 1.827 1.062 2.53 5.567 9.616 22.35 17.188 30.046 19.772 39.255 12.572 92.201 21.814 160.317 20.809 75.74-1.119 122.231-10.045 149.536-20.623l-.048.732c-1.133 17.475-2.234 34.434-47.007 42.398-25.909 4.608-59.578 7.782-102.939 8.334"/><path fill="#fdbf41" d="M224.015 330.859c-67.501.859-120.031-8.482-159.014-21.119-7.644-2.597-24.325-10.193-29.903-19.806-3.086-5.32-3.123-18.974-2.05-33.027.302.977.655 1.826 1.062 2.53 5.567 9.615 22.35 17.187 30.046 19.771 39.255 12.572 92.201 21.815 160.317 20.809 75.74-1.118 122.231-10.044 149.536-20.622l-.048.731c-1.133 17.475-2.234 34.435-47.007 42.398-25.909 4.608-59.578 7.783-102.939 8.335"/><path fill="#f1ece2" d="M390.082 305.733c.627 15.806-34.907 47.887-182.068 49.761-67.501.859-120.03-8.483-159.014-21.119-7.644-2.597-24.325-10.193-29.903-19.806-3.086-5.32-3.123-18.974-2.05-33.027.302.977.654 1.826 1.062 2.529 5.566 9.616 22.35 17.188 30.046 19.772 39.255 12.572 92.2 21.815 160.316 20.809 117.285-1.732 164.433-22.184 178.81-38.505z"/><path fill="#f10" d="M213.204 17.234c27.152 9.713 67.346 63.411 10.909 200.502-25.887 62.881-63.067 105.298-100.366 133.062-7.515 5.367-27.2 15.822-45.819 14.712-7.288-.434-21.054-4.994-36.797-11.214 3.65.962 6.757 1.56 9.16 1.705 18.619 1.121 38.304-9.444 45.82-14.867 37.298-28.057 74.478-70.922 100.365-134.467 46.596-114.38 27.323-171.314 3.903-193.217z"/><path fill="#fdbf41" d="M236.478 18.794c27.152 9.993 67.347 65.238 10.909 206.277-25.887 64.693-63.067 108.332-100.365 136.896-7.516 5.521-27.201 16.277-45.82 15.135-7.288-.447-21.055-5.137-36.799-11.537 3.651.99 6.76 1.605 9.162 1.754 18.62 1.154 38.304-9.716 45.82-15.295 37.298-28.865 74.478-72.965 100.365-138.341 46.596-117.673 27.323-176.248 3.904-198.781z"/><path fill="#f1ece2" d="M256.843 31.836c27.152 9.993 67.347 65.238 10.909 206.277-25.887 64.693-63.067 108.332-100.365 136.896-7.516 5.521-27.201 16.277-45.82 15.135-7.288-.447-21.055-5.138-36.799-11.537 3.651.989 6.76 1.605 9.162 1.754 18.619 1.154 38.304-9.716 45.82-15.295 37.298-28.866 74.478-72.965 100.365-138.341 46.596-117.673 27.323-176.248 3.904-198.782z"/><path fill="#007fff" d="M286.421 244.446C342.859 98.184 302.664 40.893 275.512 30.53l-12.824-4.036q.369.367.736.747c-19.694-3.224-46.676 10.149-72.127 35.75-3.637 3.623 12.301-2.343 17.455-7.478 12.364-10.144 30.861-15.221 48.245-7.929 39.227 16.454 40.04 103.112 1.817 193.556S162.17 390.115 122.943 373.661c-5.244-2.2-10.728-6.315-15.284-9.481-10.527-9.399-15.273-21.952-15.273-54.343V349.8c-2.762-4.107-5.092-8.711-6.907-13.878-.367-8.695-6.184-23.186-7.977-7.97 1.353 33.198 15.75 52.494 35.187 64.014l-.09-.006c-.728-.047-1.29-.063-1.775-.077-1.857-.053-2.608-.075-7.381-1.657 15.241 6.684 23.584 9.794 32.728 10.144 21.418.821 46.304-11.664 53.82-17.389 37.298-29.622 70.543-71.447 96.43-138.535"/><path fill="#f10" d="M208.806 170.329c67.5-.859 120.03 8.483 159.014 21.119 7.643 2.597 24.325 10.193 29.902 19.806 3.087 5.32 3.123 18.975 2.051 33.027-.302-.977-.655-1.826-1.062-2.529-5.567-9.616-22.351-17.188-30.047-19.772-39.255-12.572-92.2-21.815-160.316-20.809-75.741 1.118-122.232 10.044-149.536 20.623l.047-.732c1.134-17.475 2.234-34.435 47.008-42.398 25.908-4.608 59.578-7.783 102.939-8.335"/><path fill="#fdbf41" d="M208.806 198.114c67.5-.859 120.03 8.483 159.014 21.119 7.643 2.597 24.325 10.193 29.902 19.806 3.087 5.32 3.123 18.974 2.051 33.027-.302-.977-.655-1.826-1.062-2.529-5.567-9.616-22.351-17.188-30.047-19.772-39.255-12.572-92.2-21.815-160.316-20.809C132.607 230.074 86.116 239 58.812 249.579l.047-.732c1.134-17.475 2.234-34.435 47.008-42.398 25.908-4.608 59.578-7.783 102.939-8.335"/><path fill="url(#a)" d="M389.741 314.927c.662-.53.662-.585 0-1.115-1.536-1.264-3.179-2.365-4.861-3.412-5.615-3.493-11.615-6.157-17.76-8.468-1.404-.53-2.768-1.169-4.265-1.441-.41-.476-1.02-.517-1.549-.693-5.735-1.958-11.576-3.562-17.43-5.098-.49-.04-.967-.149-1.391-.394-2.741-.612-5.483-1.237-8.211-1.848-5.073-1.129-10.172-2.107-15.284-2.991a651 651 0 0 0-11.39-1.849c-2.967-.448-5.934-.91-8.927-1.128-.49-.081-.98-.177-1.483-.245-10.477-1.318-20.966-2.31-31.495-3.058a697 697 0 0 0-20.635-1.128 687 687 0 0 0-27.005-.517c-11.165 0-22.317.286-33.456.843-12.873.639-25.72 1.645-38.528 3.113-2.092.245-4.211.38-6.277.843-.424-.123-.835 0-1.259.04-9.125 1.156-18.211 2.583-27.243 4.337a332 332 0 0 0-15.92 3.466l-.106.177s-1.364 20.144 1.656 39.814a329 329 0 0 0 15.681 3.398c4.689.897 9.39 1.753 14.118 2.447 6.623.978 13.258 1.971 19.92 2.677 6.476.694 12.94 1.414 19.429 1.903 3.841.286 7.669.626 11.51.857 5.682.34 11.377.625 17.059.829 5.191.19 10.383.34 15.575.408 8.304.108 16.622.068 24.926-.109a671 671 0 0 0 23.985-.952 589 589 0 0 0 28.529-2.324c14.476-1.536 28.872-3.602 43.137-6.525 12.462-2.555 24.78-5.682 36.726-10.194 5.205-1.958 10.304-4.201 15.152-6.974 2.463-1.4 4.847-2.922 7.072-4.703z" opacity=".48"/><path fill="#f1ece2" d="M26.739 273.96c-.628-15.807 34.907-47.888 182.068-49.761 67.5-.86 120.03 8.482 159.014 21.119 7.643 2.596 24.325 10.192 29.902 19.805 3.087 5.32 3.123 18.975 2.051 33.027-.302-.977-.655-1.826-1.062-2.529-5.567-9.616-22.351-17.188-30.047-19.772-39.255-12.572-92.2-21.815-160.316-20.809-117.284 1.732-164.432 22.185-178.81 38.505z"/><path fill="#007fff" d="M26.739 302.943c-.628-15.807 34.907-47.888 182.068-49.761 67.5-.86 120.03 8.482 159.014 21.119 7.643 2.596 24.325 10.192 29.902 19.806 2.781 4.792 3.086 16.35 2.335 28.869-5.964-9.293-23.852-15.614-31.389-18.145-39.255-12.572-92.2-21.814-160.316-20.809C91.06 285.754 43.913 306.21 29.54 322.531z"/><path fill="#f10" d="M39.832 361.614c-27.152-10.071-67.346-65.75-10.909-207.896C54.81 88.518 91.99 44.536 129.289 15.748c7.515-5.564 27.2-16.405 45.819-15.254 10.526.65 34.565 10.222 58.555 21.02-2.468.255-4.851.518-7.125.768-8.248.909-15.074 1.66-19.43 1.396-18.618-1.13-38.303 9.515-45.819 14.979-37.298 28.267-74.478 71.452-100.365 135.473-46.885 115.949-27.081 173.305-3.468 195.069z"/><path fill="#fdbf41" d="M63.106 372.781c-27.152-10.18-67.347-66.463-10.91-210.153C78.085 96.719 115.265 52.26 152.563 23.16c7.516-5.625 27.201-16.583 45.819-15.42 8.128.508 24.312 6.392 42.309 14.072-6.72-2.254-12.311-3.687-16.126-3.927-18.619-1.172-38.304 9.865-45.819 15.53-37.299 29.309-74.479 74.086-100.366 140.467C21.942 318.6 63.441 373.453 90.593 383.707l23.273 7.97z"/><path fill="#f1ece2" d="M84.922 382.499c-27.152-10.289-67.346-67.177-10.909-212.41C99.9 103.472 137.08 58.536 174.379 29.123c7.515-5.686 27.2-16.762 45.819-15.586 8.412.531 25.455 6.884 44.206 15.045-6.34-2.024-11.617-3.303-15.265-3.538-18.618-1.201-38.154 8.75-45.669 14.556-37.299 30.038-74.478 75.929-100.365 143.962-48.19 126.644-14.793 188.734 9.304 209.564z"/><path fill="#007fff" d="M97.287 178.109c-56.438 146.262-16.243 203.552 10.909 213.915l12.823 4.036q-.367-.368-.735-.747c19.694 3.224 46.676-10.149 72.127-35.75 3.636-3.623-12.301 2.344-17.455 7.478-12.364 10.144-30.861 15.221-48.246 7.929-39.226-16.454-40.04-103.112-1.817-193.556s96.645-148.975 135.872-132.52c5.243 2.199 10.728 6.314 15.284 9.48 10.527 9.4 15.273 21.952 15.273 54.343V72.754c2.762 4.107 5.092 8.71 6.907 13.878.366 8.695 6.184 23.186 7.976 7.97-1.352-33.198-15.75-52.494-35.186-64.014l.09.006c.728.047 1.29.063 1.775.077 1.856.054 2.608.075 7.38 1.657-15.24-6.684-23.583-9.794-32.728-10.144-21.418-.821-46.304 11.664-53.819 17.39-37.299 29.62-70.543 71.446-96.43 138.535M220.561 345.816c113.827-3.262 161.312-23.248 176.931-39.526l1.487 13.639.712-.709c.467 1.55.634 5.052-.076 8.281-1.988 13.898-43.349 49.927-203.564 49.927-5.85 0-11.423-.067-16.728-.198 11.937-10.631 22.117-21.078 30.845-31.195q5.137-.069 10.393-.219"/><defs><linearGradient id="a" x1="253.508" x2="256.256" y1="274.297" y2="335.168" gradientUnits="userSpaceOnUse"><stop offset=".16" stop-color="#191919"/><stop offset=".97" stop-color="#191919" stop-opacity="0"/></linearGradient></defs></svg>
